libs/ui/packages/crypto-icons/src/svg/MOAC.svg

<svg width="24" height="24" viewBox="0 0 24 24" fill="none">
<path d="M11.985 12.0259L7.20826 7.24914L7.10476 7.09313L5.40601 5.43188V18.5681H7.11901V9.48188L10.806 13.2206L12 14.4146L13.194 13.2206L16.881 9.48188V18.5681H18.594V5.43188L16.881 7.09313L11.985 12.0259Z" fill="black"/>
</svg>

<svg width="24" height="24" viewBox="0 0 24 24" fill="none"><path fill="#000" d="M11.985 12.026 7.208 7.249l-.103-.156-1.699-1.661v13.136h1.713V9.482l3.687 3.739L12 14.415l1.194-1.194 3.687-3.74v9.087h1.713V5.432l-1.713 1.661z"/></svg>
